Origami/32x32/apps/vectr.svg

<svg width="32" height="32" version="1.1" viewBox="0 0 32 32" xmlns="http://www.w3.org/2000/svg">
 <path d="m16 2a14 14 0 0 0 -14 14 14 14 0 0 0 14 14 14 14 0 0 0 14 -14 14 14 0 0 0 -14 -14z" style="fill:#4f4f4f"/>
 <path d="m16 2a14 14 0 0 0 -14 14 14 14 0 0 0 0.0215 0.414 14 14 0 0 1 13.978 -13.414 14 14 0 0 1 13.979 13.586 14 14 0 0 0 0.021 -0.586 14 14 0 0 0 -14 -14z" fill="#ffffff" style="opacity:.1"/>
 <path d="m2.0215 16.414a14 14 0 0 0 -0.0215 0.586 14 14 0 0 0 14 14 14 14 0 0 0 14 -14 14 14 0 0 0 -0.021 -0.414 14 14 0 0 1 -13.979 13.414 14 14 0 0 1 -13.978 -13.586z" opacity=".2"/>
 <path d="m11.222656 9.9926449c-0.224918-3.753e-4 -0.462236 0.00781-0.716797 0.00781-1.2853897-0.026886-2.5718844 0.01638-3.8574215 0-0.8911913-0.00704-0.6856734 1.085333-0.4277344 1.544922 2.8518953 5.081388 6.2219869 10.772896 9.3632809 16.136719 0.60357 0.89045 1.239911-0.318707 1.578125-0.835938 0.854782-1.307202 1.558837-2.676938 2.28125-4.046875 0.305125-0.920736-0.5479-1.629444-0.851562-2.410156-1.85294-3.290673-3.801182-6.51957-5.693359-9.78125-0.452819-0.5431229-1.001028-0.6141062-1.675782-0.615232zm9.31836 0.00781c-0.958955 0-0.34961 1.080078-0.34961 1.080078s1.437435 2.725237 2.265625 4.216797c0.828191 1.491564 1.275004 0.20789 1.482422-0.205078 0.746267-1.485841 1.394899-3.033837 1.917969-4.0625 0.523068-1.028663-0.566406-1.029297-0.566406-1.029297z" style="opacity:.2"/>
 <path d="m11.222656 8.9921875c-0.224918-3.753e-4 -0.462236 0.0078125-0.716797 0.0078125-1.2853897-0.0268863-2.5718844 0.0163773-3.8574215 0-0.8911913-0.00704-0.6856734 1.085333-0.4277344 1.544922 2.8518953 5.081388 6.2219869 10.772896 9.3632809 16.136719 0.60357 0.89045 1.239911-0.318707 1.578125-0.835938 0.854782-1.307202 1.558837-2.676938 2.28125-4.046875 0.305125-0.920736-0.5479-1.629444-0.851562-2.410156-1.85294-3.290673-3.801182-6.51957-5.693359-9.7812501-0.452819-0.5431254-1.001028-0.6141086-1.675782-0.6152344zm9.31836 0.0078125c-0.958955 0-0.34961 1.080078-0.34961 1.080078s1.437435 2.725237 2.265625 4.216797c0.828191 1.491564 1.275004 0.20789 1.482422-0.205078 0.746267-1.485841 1.394899-3.033837 1.917969-4.0625 0.523068-1.0286633-0.566406-1.029297-0.566406-1.029297h-4.75z" style="fill:#cccccc"/>
 <path d="m11.222656 8.9921875c-0.224918-3.753e-4 -0.462236 0.0078125-0.716797 0.0078125-1.2853893-0.0268863-2.5718844 0.0163773-3.8574215 0-0.7483706-0.0059118-0.7151272 0.7467324-0.5351563 1.265625 0.0965794-0.157586 0.2588188-0.2678079 0.5351563-0.265625 1.2855371 0.01638 2.5720322-0.026886 3.8574215 0 0.254561 0 0.491879-0.0081878 0.716797-0.0078125 0.674754 0.0011258 1.222963 0.0721115 1.675782 0.6152345 1.892177 3.26168 3.840419 6.490577 5.693359 9.78125 0.194837 0.500925 0.612463 0.973569 0.808594 1.490234 0.014137-0.026832 0.028818-0.053245 0.042968-0.080078 0.305125-0.920736-0.5479-1.629444-0.851562-2.410156-1.85294-3.290673-3.801183-6.51957-5.693359-9.7812501-0.452819-0.5431254-1.001028-0.6141086-1.675782-0.6152344zm9.31836 0.0078125c-0.958955 0-0.34961 1.080078-0.34961 1.080078s0.003897 0.007795 0.003906 0.007813c0.08272-0.049664 0.186483-0.087891 0.345704-0.087891h4.75s0.298171 0.00431 0.507812 0.154297c0.017852-0.035702 0.041024-0.090448 0.058594-0.125 0.523068-1.0286634-0.566406-1.029297-0.566406-1.029297h-4.75z" style="fill:#ffffff;opacity:.2"/>
</svg>

<svg xmlns="http://www.w3.org/2000/svg" width="32" height="32" version="1.1" viewBox="0 0 32 32">
 <path style="fill:#4f4f4f" d="m16 2a14 14 0 0 0 -14 14 14 14 0 0 0 14 14 14 14 0 0 0 14 -14 14 14 0 0 0 -14 -14z"/>
 <path fill="#ffffff" style="opacity:0.1" d="m16 2a14 14 0 0 0 -14 14 14 14 0 0 0 0.0215 0.414 14 14 0 0 1 13.978 -13.414 14 14 0 0 1 13.979 13.586 14 14 0 0 0 0.021 -0.586 14 14 0 0 0 -14 -14z"/>
 <path opacity=".2" d="m2.0215 16.414a14 14 0 0 0 -0.0215 0.586 14 14 0 0 0 14 14 14 14 0 0 0 14 -14 14 14 0 0 0 -0.021 -0.414 14 14 0 0 1 -13.979 13.414 14 14 0 0 1 -13.978 -13.586z"/>
 <path style="opacity:0.2" d="m 11.222656,9.9926449 c -0.224918,-3.753e-4 -0.462236,0.00781 -0.716797,0.00781 -1.2853897,-0.026886 -2.5718844,0.01638 -3.8574215,0 -0.8911913,-0.00704 -0.6856734,1.085333 -0.4277344,1.544922 2.8518953,5.081388 6.2219869,10.772896 9.3632809,16.136719 0.60357,0.89045 1.239911,-0.318707 1.578125,-0.835938 0.854782,-1.307202 1.558837,-2.676938 2.28125,-4.046875 0.305125,-0.920736 -0.5479,-1.629444 -0.851562,-2.410156 -1.85294,-3.290673 -3.801182,-6.51957 -5.693359,-9.78125 C 12.445619,10.064754 11.89741,9.9937707 11.222656,9.9926449 Z m 9.31836,0.00781 c -0.958955,0 -0.34961,1.080078 -0.34961,1.080078 0,0 1.437435,2.725237 2.265625,4.216797 0.828191,1.491564 1.275004,0.20789 1.482422,-0.205078 0.746267,-1.485841 1.394899,-3.033837 1.917969,-4.0625 0.523068,-1.028663 -0.566406,-1.029297 -0.566406,-1.029297 z"/>
 <path style="fill:#cccccc" d="M 11.222656 8.9921875 C 10.997738 8.9918122 10.76042 9 10.505859 9 C 9.2204693 8.9731137 7.9339746 9.0163773 6.6484375 9 C 5.7572462 8.99296 5.9627641 10.085333 6.2207031 10.544922 C 9.0725984 15.62631 12.44269 21.317818 15.583984 26.681641 C 16.187554 27.572091 16.823895 26.362934 17.162109 25.845703 C 18.016891 24.538501 18.720946 23.168765 19.443359 21.798828 C 19.748484 20.878092 18.895459 20.169384 18.591797 19.388672 C 16.738857 16.097999 14.790615 12.869102 12.898438 9.6074219 C 12.445619 9.0642965 11.89741 8.9933133 11.222656 8.9921875 z M 20.541016 9 C 19.582061 9 20.191406 10.080078 20.191406 10.080078 C 20.191406 10.080078 21.628841 12.805315 22.457031 14.296875 C 23.285222 15.788439 23.732035 14.504765 23.939453 14.091797 C 24.68572 12.605956 25.334352 11.05796 25.857422 10.029297 C 26.38049 9.0006337 25.291016 9 25.291016 9 L 20.541016 9 z"/>
 <path style="fill:#ffffff;opacity:0.2" d="M 11.222656 8.9921875 C 10.997738 8.9918122 10.76042 9 10.505859 9 C 9.2204697 8.9731137 7.9339746 9.0163773 6.6484375 9 C 5.9000669 8.9940882 5.9333103 9.7467324 6.1132812 10.265625 C 6.2098606 10.108039 6.3721 9.9978171 6.6484375 10 C 7.9339746 10.01638 9.2204697 9.973114 10.505859 10 C 10.76042 10 10.997738 9.9918122 11.222656 9.9921875 C 11.89741 9.9933133 12.445619 10.064299 12.898438 10.607422 C 14.790615 13.869102 16.738857 17.097999 18.591797 20.388672 C 18.786634 20.889597 19.20426 21.362241 19.400391 21.878906 C 19.414528 21.852074 19.429209 21.825661 19.443359 21.798828 C 19.748484 20.878092 18.895459 20.169384 18.591797 19.388672 C 16.738857 16.097999 14.790614 12.869102 12.898438 9.6074219 C 12.445619 9.0642965 11.89741 8.9933133 11.222656 8.9921875 z M 20.541016 9 C 19.582061 9 20.191406 10.080078 20.191406 10.080078 C 20.191406 10.080078 20.195303 10.087873 20.195312 10.087891 C 20.278032 10.038227 20.381795 10 20.541016 10 L 25.291016 10 C 25.291016 10 25.589187 10.00431 25.798828 10.154297 C 25.81668 10.118595 25.839852 10.063849 25.857422 10.029297 C 26.38049 9.0006336 25.291016 9 25.291016 9 L 20.541016 9 z"/>
</svg>
